X:1
T:The War Was A-Raging
M:4/4
L:1/4
K:E
 G| E2 F E| E2 B, E| F3/2 G/2 F E| G2 G F| E2 F E| E2 E C| B,2 C E|\
 E3||
